X:1
T: The Sprigs
P: Piper - Matt
C: Matt Petrie, 12-2-2002
C: Reel or hornpipe
K: D
M: 4/4
L: 1/8
|: A|"D"dcdB AAAB|"D"dfag fddc|"G"BBBA GABd|"Em"egfd "A"e2 eB|
"D"Addc dA A/A/A|"D"fAeA dcBA|"G"BBBc defg|"A"aAaf "D"d2 d :|
P: Drummer - Howard
|: A|"D"dAAA fAdA|"D"AAag aAAA|"G"BGGG dGBG|"Em"GGed "A"eAAA|
"D"daaa daca|"G"Baaa Ba"D"Aa|"G"Ggge dfeg|"A"fAeA "D"d2 d :|
P: Pianist - Terry
|: A|"D"d2 f2 A2 af|"D"d2 df A2 fa|"G"B2 g2 G2 gf|"Em"e2 dg "A"cA c2|
"D"d2 fa A2 fe|"E"dafa "G"B2 gf|"A"e2 g2 A2 ce|"A"faef "D"d2 d :|
P: Bassist - Robert
|: A|"D"d2 A2 A2 a2|"D"d2 a2 A2 a2|"G"B2 G2 G2 g2|"Em"G2 B2 "A"eaca|"D"d2-da "A"c2-ca|"G"B2 g2 A2 g2|"G"G2-GB "A"A2 c2|"A"Aaca "D"d2 d :|
P: Fiddler - Barbara
|: A|"D"d2 fg fedB|"D"Affg agfe|"G"dB B/B/B eBgB|"Em"eBdf "A"e2 A2|
"D"d2 ag fdcd|"D"fdec dGGA|"G"BGdB "A"A/A/A ce|"A"agfe "D"d2 d:|
P: Ensemble - All
|: A|"D" dcdB AAAB|"D"d2 df A2 fa|"G"BGGG dGBG|"Em"e2 df "A"cA c2|
"D"d2-da "A"c2-ca|"G"Baaa BaAa|"G"BGdB "A"A/A/A ce|"A"aAaf "D"d2 d :|